icons/layers.svg

<?xml version="1.0" standalone="no"?><!-- Generator: Gravit.io --><svg xmlns="http://www.w3.org/2000/svg" xmlns:xlink="http://www.w3.org/1999/xlink" width="96" height="96"><path d=" M 7.600000000000013 72.05 C 6.700000000000013 71.65 5.900000000000013 70.85000000000001 5.400000000000013 69.95 C 5.000000000000012 68.95 5.000000000000012 67.85000000000001 5.400000000000013 66.85000000000001 C 5.700000000000013 65.85 6.500000000000012 65.05000000000001 7.500000000000012 64.65 C 8.400000000000013 64.25 9.500000000000012 64.15 10.500000000000012 64.55000000000001 L 45.40000000000001 77.95 Q 47.034789694839304 78.35000000000001 48.100000000000016 78.35000000000001 Q 49.16521030516073 78.35000000000001 50.80000000000001 77.95 L 85.60000000000002 64.55000000000001 C 86.60000000000002 64.15 87.70000000000002 64.25 88.70000000000002 64.65 C 89.70000000000002 65.05000000000001 90.4 65.85 90.80000000000001 66.85000000000001 C 91.20000000000002 67.85000000000001 91.20000000000002 68.95 90.70000000000002 69.95 C 90.30000000000001 70.85000000000001 89.5 71.65 88.5 72.05 L 52.90000000000001 85.75 Q 49.99910104142003 86.55 48.100000000000016 86.55 Q 46.20089895858 86.55 43.30000000000001 85.75 L 7.600000000000013 72.05 Z  M 7.500000000000012 52.150000000000006 C 6.500000000000012 51.85 5.700000000000013 51.050000000000004 5.200000000000013 50.050000000000004 C 4.800000000000013 49.150000000000006 4.800000000000013 48.050000000000004 5.200000000000013 47.050000000000004 C 5.500000000000012 46.050000000000004 6.300000000000013 45.25 7.300000000000013 44.75 C 8.200000000000014 44.35 9.300000000000013 44.35 10.300000000000013 44.75 L 45.20000000000001 58.150000000000006 Q 46.8347896948393 58.550000000000004 47.90000000000001 58.550000000000004 Q 48.965210305160724 58.550000000000004 50.600000000000016 58.150000000000006 L 85.5 44.75 C 86.5 44.35 87.60000000000002 44.35 88.5 44.75 C 89.5 45.25 90.30000000000001 46.050000000000004 90.60000000000002 47.050000000000004 C 91 48.050000000000004 91 49.150000000000006 90.60000000000002 50.050000000000004 C 90.10000000000002 51.050000000000004 89.30000000000001 51.85 88.30000000000001 52.150000000000006 L 52.70000000000001 65.85 Q 49.79910104142003 66.65 47.90000000000001 66.65 Q 46.000898958579995 66.65 43.100000000000016 65.85 L 7.500000000000012 52.150000000000006 Z  M 19.100000000000012 27.750000000000004 L 45.40000000000001 38.25 Q 46.966724262228816 38.75 48.000000000000014 38.75 Q 49.03327573777121 38.75 50.600000000000016 38.25 L 76.9 27.750000000000004 L 50.70000000000001 17.950000000000003 Q 49.07162514584681 17.450000000000003 48.000000000000014 17.450000000000003 Q 46.92837485415322 17.450000000000003 45.30000000000001 17.950000000000003 L 19.100000000000012 27.750000000000004 Z  M 9.700000000000014 31.750000000000004 L 43.20000000000001 46.050000000000004 Q 46.10089895858 46.85 48.000000000000014 46.85 Q 49.89910104142003 46.85 52.80000000000001 46.050000000000004 L 86.30000000000001 31.750000000000004 Q 90.82884808766866 29.952084099875318 90.80000000000001 27.550000000000004 Q 90.77146962801976 25.174371026444277 86.30000000000001 23.450000000000003 L 52.80000000000001 10.150000000000002 Q 49.893076596585125 9.450000000000003 48.000000000000014 9.450000000000003 Q 46.106923403414896 9.450000000000003 43.20000000000001 10.150000000000002 L 9.700000000000014 23.450000000000003 Q 5.228530371980268 25.174371026444277 5.200000000000013 27.550000000000004 Q 5.171151912331371 29.952084099875318 9.700000000000014 31.750000000000004 Z " fill-rule="evenodd" fill="#454545" stroke="none"/><mask id="_mask_od2KE10iDs00Jsib6qykrpuOlXgqNXuo"><path d=" M 7.600000000000013 72.05 C 6.700000000000013 71.65 5.900000000000013 70.85000000000001 5.400000000000013 69.95 C 5.000000000000012 68.95 5.000000000000012 67.85000000000001 5.400000000000013 66.85000000000001 C 5.700000000000013 65.85 6.500000000000012 65.05000000000001 7.500000000000012 64.65 C 8.400000000000013 64.25 9.500000000000012 64.15 10.500000000000012 64.55000000000001 L 45.40000000000001 77.95 Q 47.034789694839304 78.35000000000001 48.100000000000016 78.35000000000001 Q 49.16521030516073 78.35000000000001 50.80000000000001 77.95 L 85.60000000000002 64.55000000000001 C 86.60000000000002 64.15 87.70000000000002 64.25 88.70000000000002 64.65 C 89.70000000000002 65.05000000000001 90.4 65.85 90.80000000000001 66.85000000000001 C 91.20000000000002 67.85000000000001 91.20000000000002 68.95 90.70000000000002 69.95 C 90.30000000000001 70.85000000000001 89.5 71.65 88.5 72.05 L 52.90000000000001 85.75 Q 49.99910104142003 86.55 48.100000000000016 86.55 Q 46.20089895858 86.55 43.30000000000001 85.75 L 7.600000000000013 72.05 Z  M 7.500000000000012 52.150000000000006 C 6.500000000000012 51.85 5.700000000000013 51.050000000000004 5.200000000000013 50.050000000000004 C 4.800000000000013 49.150000000000006 4.800000000000013 48.050000000000004 5.200000000000013 47.050000000000004 C 5.500000000000012 46.050000000000004 6.300000000000013 45.25 7.300000000000013 44.75 C 8.200000000000014 44.35 9.300000000000013 44.35 10.300000000000013 44.75 L 45.20000000000001 58.150000000000006 Q 46.8347896948393 58.550000000000004 47.90000000000001 58.550000000000004 Q 48.965210305160724 58.550000000000004 50.600000000000016 58.150000000000006 L 85.5 44.75 C 86.5 44.35 87.60000000000002 44.35 88.5 44.75 C 89.5 45.25 90.30000000000001 46.050000000000004 90.60000000000002 47.050000000000004 C 91 48.050000000000004 91 49.150000000000006 90.60000000000002 50.050000000000004 C 90.10000000000002 51.050000000000004 89.30000000000001 51.85 88.30000000000001 52.150000000000006 L 52.70000000000001 65.85 Q 49.79910104142003 66.65 47.90000000000001 66.65 Q 46.000898958579995 66.65 43.100000000000016 65.85 L 7.500000000000012 52.150000000000006 Z  M 19.100000000000012 27.750000000000004 L 45.40000000000001 38.25 Q 46.966724262228816 38.75 48.000000000000014 38.75 Q 49.03327573777121 38.75 50.600000000000016 38.25 L 76.9 27.750000000000004 L 50.70000000000001 17.950000000000003 Q 49.07162514584681 17.450000000000003 48.000000000000014 17.450000000000003 Q 46.92837485415322 17.450000000000003 45.30000000000001 17.950000000000003 L 19.100000000000012 27.750000000000004 Z  M 9.700000000000014 31.750000000000004 L 43.20000000000001 46.050000000000004 Q 46.10089895858 46.85 48.000000000000014 46.85 Q 49.89910104142003 46.85 52.80000000000001 46.050000000000004 L 86.30000000000001 31.750000000000004 Q 90.82884808766866 29.952084099875318 90.80000000000001 27.550000000000004 Q 90.77146962801976 25.174371026444277 86.30000000000001 23.450000000000003 L 52.80000000000001 10.150000000000002 Q 49.893076596585125 9.450000000000003 48.000000000000014 9.450000000000003 Q 46.106923403414896 9.450000000000003 43.20000000000001 10.150000000000002 L 9.700000000000014 23.450000000000003 Q 5.228530371980268 25.174371026444277 5.200000000000013 27.550000000000004 Q 5.171151912331371 29.952084099875318 9.700000000000014 31.750000000000004 Z " fill-rule="evenodd" fill="white" stroke="none"/></mask><path d=" M 7.600000000000013 72.05 C 6.700000000000013 71.65 5.900000000000013 70.85000000000001 5.400000000000013 69.95 C 5.000000000000012 68.95 5.000000000000012 67.85000000000001 5.400000000000013 66.85000000000001 C 5.700000000000013 65.85 6.500000000000012 65.05000000000001 7.500000000000012 64.65 C 8.400000000000013 64.25 9.500000000000012 64.15 10.500000000000012 64.55000000000001 L 45.40000000000001 77.95 Q 47.034789694839304 78.35000000000001 48.100000000000016 78.35000000000001 Q 49.16521030516073 78.35000000000001 50.80000000000001 77.95 L 85.60000000000002 64.55000000000001 C 86.60000000000002 64.15 87.70000000000002 64.25 88.70000000000002 64.65 C 89.70000000000002 65.05000000000001 90.4 65.85 90.80000000000001 66.85000000000001 C 91.20000000000002 67.85000000000001 91.20000000000002 68.95 90.70000000000002 69.95 C 90.30000000000001 70.85000000000001 89.5 71.65 88.5 72.05 L 52.90000000000001 85.75 Q 49.99910104142003 86.55 48.100000000000016 86.55 Q 46.20089895858 86.55 43.30000000000001 85.75 L 7.600000000000013 72.05 Z  M 7.500000000000012 52.150000000000006 C 6.500000000000012 51.85 5.700000000000013 51.050000000000004 5.200000000000013 50.050000000000004 C 4.800000000000013 49.150000000000006 4.800000000000013 48.050000000000004 5.200000000000013 47.050000000000004 C 5.500000000000012 46.050000000000004 6.300000000000013 45.25 7.300000000000013 44.75 C 8.200000000000014 44.35 9.300000000000013 44.35 10.300000000000013 44.75 L 45.20000000000001 58.150000000000006 Q 46.8347896948393 58.550000000000004 47.90000000000001 58.550000000000004 Q 48.965210305160724 58.550000000000004 50.600000000000016 58.150000000000006 L 85.5 44.75 C 86.5 44.35 87.60000000000002 44.35 88.5 44.75 C 89.5 45.25 90.30000000000001 46.050000000000004 90.60000000000002 47.050000000000004 C 91 48.050000000000004 91 49.150000000000006 90.60000000000002 50.050000000000004 C 90.10000000000002 51.050000000000004 89.30000000000001 51.85 88.30000000000001 52.150000000000006 L 52.70000000000001 65.85 Q 49.79910104142003 66.65 47.90000000000001 66.65 Q 46.000898958579995 66.65 43.100000000000016 65.85 L 7.500000000000012 52.150000000000006 Z  M 19.100000000000012 27.750000000000004 L 45.40000000000001 38.25 Q 46.966724262228816 38.75 48.000000000000014 38.75 Q 49.03327573777121 38.75 50.600000000000016 38.25 L 76.9 27.750000000000004 L 50.70000000000001 17.950000000000003 Q 49.07162514584681 17.450000000000003 48.000000000000014 17.450000000000003 Q 46.92837485415322 17.450000000000003 45.30000000000001 17.950000000000003 L 19.100000000000012 27.750000000000004 Z  M 9.700000000000014 31.750000000000004 L 43.20000000000001 46.050000000000004 Q 46.10089895858 46.85 48.000000000000014 46.85 Q 49.89910104142003 46.85 52.80000000000001 46.050000000000004 L 86.30000000000001 31.750000000000004 Q 90.82884808766866 29.952084099875318 90.80000000000001 27.550000000000004 Q 90.77146962801976 25.174371026444277 86.30000000000001 23.450000000000003 L 52.80000000000001 10.150000000000002 Q 49.893076596585125 9.450000000000003 48.000000000000014 9.450000000000003 Q 46.106923403414896 9.450000000000003 43.20000000000001 10.150000000000002 L 9.700000000000014 23.450000000000003 Q 5.228530371980268 25.174371026444277 5.200000000000013 27.550000000000004 Q 5.171151912331371 29.952084099875318 9.700000000000014 31.750000000000004 Z " fill-rule="evenodd" fill="none" stroke="none" stroke-width="16" mask="url(#_mask_od2KE10iDs00Jsib6qykrpuOlXgqNXuo)"/></svg>

<svg xmlns="http://www.w3.org/2000/svg" width="96" height="96"><path d="M7.6 72.05c-.9-.4-1.7-1.2-2.2-2.1-.4-1-.4-2.1 0-3.1.3-1 1.1-1.8 2.1-2.2.9-.4 2-.5 3-.1l34.9 13.4q1.635.4 2.7.4 1.065 0 2.7-.4l34.8-13.4c1-.4 2.1-.3 3.1.1s1.7 1.2 2.1 2.2c.4 1 .4 2.1-.1 3.1-.4.9-1.2 1.7-2.2 2.1l-35.6 13.7q-2.9.8-4.8.8t-4.8-.8L7.6 72.05zm-.1-19.9c-1-.3-1.8-1.1-2.3-2.1-.4-.9-.4-2 0-3 .3-1 1.1-1.8 2.1-2.3.9-.4 2-.4 3 0l34.9 13.4q1.635.4 2.7.4 1.065 0 2.7-.4l34.9-13.4c1-.4 2.1-.4 3 0 1 .5 1.8 1.3 2.1 2.3.4 1 .4 2.1 0 3-.5 1-1.3 1.8-2.3 2.1l-35.6 13.7q-2.9.8-4.8.8t-4.8-.8L7.5 52.15zm11.6-24.4l26.3 10.5q1.567.5 2.6.5 1.033 0 2.6-.5l26.3-10.5-26.2-9.8q-1.628-.5-2.7-.5-1.072 0-2.7.5l-26.2 9.8zm-9.4 4l33.5 14.3q2.9.8 4.8.8t4.8-.8l33.5-14.3q4.529-1.798 4.5-4.2-.029-2.376-4.5-4.1l-33.5-13.3q-2.907-.7-4.8-.7-1.893 0-4.8.7L9.7 23.45q-4.471 1.724-4.5 4.1-.029 2.402 4.5 4.2z" fill-rule="evenodd" fill="#454545"/></svg>
